X:705
T:Eyes Right Reel
M:2/4
L:1/16
Z:abc by Bruce Osborne - bosborne@kos.net
K:G
D2|DGGF GABG|EAA^G ABcA|FDFA d3c|BcAB GDB,C|!
DGGF GABG|EAAG ABcA|FDFA d3c|BGAB G2:|!
K:D
FG|AAFA dded|BBGB eefe|ccAc egfe|dcBA GEFG|!
AAFA dded|BBGB eefg|afdf gece|d2f2 d2:|!
